X: 1
T:Galliarda
C:Johann Staden
O:Germany
Z:Transcribed by Frank Nordberg - http://www.musicaviva.com

M:3/4
L:1/4
K:Dm
V:1
AcA|d3/d/c|BAG|A3/=B/^c|d=Bc|A3/f/d|gfe|d3::=BB^c|d3/e/f|cA=B|c3|ABA|d3/e/f|daf|e3:|
V:2
EEF|F3/G/A|FED|E3|AGG|F3/A/B-|B/B/A3/A/|^F3::GGG|A3|GFF|G3|FFF|A3|AAd|^c3:|
V:3
CCD|D3/D/F|D^CD|^C3/D/E|A,DE|CDD|E3/D/ D/^C/|D3::DDE|F3|ECD|E3|DDD|F3/E/D|FFA|A3:|
V:4
A,A,D,|B,3/B,/F,|G,A,B,|A,3|^F,G,C,|F,D,G,-|G,/G,/ A,3/A,/|D,3::G,G,E,|D,3|E,F,D,|C,3|D,D,D,|D,3|D,D,D|A,3:|

